X:70
T: Schneiderlitchen, S. 37
N: L0030
O: Luxemburg
S: Die Luxemburger Volkslieder lterer Zeit, Luxemburg 1904 posth.]
R: Hochzeitslied, Trinklied]
M: 2/4
L: 1/16
K: G
D2 | G2G2G2GG | G2D2D2z2 | B4d4 | B4z2
B2 | B2d2d2B2 | A2ABc2
A2 | G2B2B2AG | A2D2D2z2
G4B2d2 | g6e2 | d2B2c2A2 | A4G2

